;FLAVOR:Repetier
;TIME:3588
;MINX:72.713
;MINY:77.928
;MINZ:0.3
;MAXX:177.064
;MAXY:166.85
;MAXZ:2.9
;Generated with Cura_SteamEngine 5.2.1
M190 S60
M104 S200
M109 S200
M82 ;absolute extrusion mode
G28 ;Home
G1 Z15.0 F6000 ;Move the platform down 15mm
;Prime the extruder
G92 E0
G1 F200 E3
G92 E0
G92 E0
G92 E0
G1 F1500 E-6.5
;LAYER_COUNT:14
;LAYER:0
M107
G0 F3600 X81.096 Y83.08 Z0.3
;TYPE:SKIRT
G1 F1500 E0
G1 F1800 X82.06 Y82.37 E0.02252
G1 X83.452 Y81.378 E0.05467
G1 X84.16 Y80.89 E0.07085
G1 X85.231 Y80.359 E0.09334
G1 X86.748 Y79.643 E0.12489
G1 X87.571 Y79.267 E0.14191
G1 X88.754 Y78.924 E0.16508
G1 X90.332 Y78.497 E0.19583
G1 X91.213 Y78.27 E0.21294
G1 X92.416 Y78.142 E0.2357
G1 X94.075 Y77.996 E0.26703
G1 X94.97 Y77.928 E0.28391
G1 X96.22 Y78.018 E0.30749
G1 X97.812 Y78.159 E0.33755
G1 X98.751 Y78.256 E0.35531
G1 X99.902 Y78.549 E0.37765
G1 X101.516 Y78.987 E0.40911
G1 X102.382 Y79.234 E0.42605
G1 X103.509 Y79.745 E0.44932
G1 X105.013 Y80.456 E0.48062
G1 X105.805 Y80.844 E0.4972
G1 X106.74 Y81.486 E0.51854
G1 X108.178 Y82.51 E0.55175
G1 X108.884 Y83.028 E0.56822
G1 X109.707 Y83.838 E0.58994
G1 X110.866 Y85.021 E0.62109
G1 X112.222 Y86.443 E0.65805
G1 X114.161 Y88.419 E0.71013
G1 X116.142 Y90.327 E0.76187
G1 X118.168 Y92.173 E0.81342
G1 X120.24 Y93.954 E0.86482
G1 X122.381 Y95.692 E0.91669
G1 X124.531 Y97.338 E0.96762
G1 X126.783 Y98.963 E1.01986
G1 X129.03 Y100.491 E1.07098
G1 X131.312 Y101.95 E1.12193
G1 X134.876 Y104.055 E1.19979
G1 X135.821 Y104.586 E1.22018
G1 X136.74 Y105.219 E1.24117
G1 X138.081 Y106.172 E1.27211
G1 X138.826 Y106.724 E1.28956
G1 X139.868 Y107.583 E1.31496
G1 X139.91 Y107.61 E1.3159
G1 X141.654 Y109.023 E1.35812
G1 X143.821 Y110.676 E1.40939
G1 X146.031 Y112.269 E1.46063
G1 X148.325 Y113.823 E1.51275
G1 X150.633 Y115.293 E1.56423
G1 X152.959 Y116.685 E1.61522
G1 X155.34 Y118.02 E1.66656
G1 X157.781 Y119.299 E1.7184
G1 X160.264 Y120.511 E1.77037
G1 X162.639 Y121.59 E1.81944
G1 X163.676 Y122.156 E1.84167
G1 X164.874 Y122.841 E1.86763
G1 X165.43 Y123.17 E1.87978
G1 X165.882 Y123.494 E1.89024
G1 X166.675 Y124.174 E1.90989
G1 X168.127 Y125.478 E1.9466
G1 X168.512 Y125.896 E1.95729
G1 X169.129 Y126.701 E1.97637
G1 X169.92 Y127.772 E2.00141
G1 X170.362 Y128.4 E2.01586
G1 X170.977 Y129.38 E2.03762
G1 X173.59 Y133.726 E2.13301
G1 X174.109 Y134.634 E2.15269
G1 X175.195 Y136.81 E2.19843
G1 X175.585 Y137.621 E2.21536
G1 X175.937 Y138.758 E2.23775
G1 X176.396 Y140.327 E2.2685
G1 X176.651 Y141.243 E2.28638
G1 X176.8 Y142.438 E2.30904
G1 X176.981 Y144.109 E2.34065
G1 X177.064 Y144.993 E2.35736
G1 X177.003 Y146.175 E2.37962
G1 X176.885 Y147.883 E2.41182
G1 X176.812 Y148.767 E2.42851
G1 X176.545 Y149.911 E2.45061
G1 X176.127 Y151.581 E2.48299
G1 X175.905 Y152.421 E2.49933
G1 X175.42 Y153.551 E2.52246
G1 X174.759 Y155.023 E2.55282
G1 X174.362 Y155.875 E2.5705
G1 X173.704 Y156.876 E2.59303
G1 X172.738 Y158.289 E2.62523
G1 X172.235 Y159.001 E2.64163
G1 X171.447 Y159.834 E2.6632
G1 X170.231 Y161.074 E2.69586
G1 X169.6 Y161.699 E2.71257
G1 X168.634 Y162.412 E2.73516
G1 X167.298 Y163.362 E2.76599
G1 X166.53 Y163.892 E2.78354
G1 X165.471 Y164.416 E2.80577
G1 X163.966 Y165.128 E2.83709
G1 X163.116 Y165.515 E2.85466
G1 X161.956 Y165.851 E2.87737
G1 X160.376 Y166.28 E2.90817
G1 X159.48 Y166.51 E2.92557
G1 X158.264 Y166.638 E2.94857
G1 X156.631 Y166.783 E2.97941
G1 X155.718 Y166.85 E2.99663
G1 X154.462 Y166.761 E3.02031
G1 X152.887 Y166.621 E3.05006
G1 X151.951 Y166.525 E3.06776
G1 X150.775 Y166.227 E3.09058
G1 X149.549 Y165.894 E3.11448
G1 X146.885 Y165.212 E3.1662
G1 X144.196 Y164.605 E3.21806
G1 X141.515 Y164.077 E3.26946
G1 X138.846 Y163.632 E3.32036
G1 X136.105 Y163.252 E3.37241
G1 X133.375 Y162.953 E3.42407
G1 X130.696 Y162.735 E3.47463
G1 X127.912 Y162.588 E3.52707
G1 X125.196 Y162.522 E3.57817
G1 X122.443 Y162.533 E3.62996
G1 X119.726 Y162.62 E3.68109
G1 X116.978 Y162.787 E3.73288
G1 X114.265 Y163.028 E3.78412
G1 X111.541 Y163.349 E3.83571
G1 X108.848 Y163.743 E3.88691
G1 X106.12 Y164.222 E3.93901
G1 X103.453 Y164.768 E3.99021
G1 X100.803 Y165.387 E4.0414
G1 X97.917 Y166.137 E4.09749
G1 X96.727 Y166.263 E4.12
G1 X95.02 Y166.413 E4.15224
G1 X94.145 Y166.479 E4.16874
G1 X92.976 Y166.395 E4.19079
G1 X91.299 Y166.246 E4.22246
G1 X90.394 Y166.154 E4.23957
G1 X89.228 Y165.859 E4.26219
G1 X87.563 Y165.406 E4.29465
G1 X86.736 Y165.17 E4.31083
G1 X85.669 Y164.686 E4.33287
G1 X84.099 Y163.943 E4.36554
G1 X83.321 Y163.561 E4.38185
G1 X82.344 Y162.89 E4.40414
G1 X80.971 Y161.913 E4.43584
G1 X80.238 Y161.375 E4.45294
G1 X79.441 Y160.591 E4.47397
G1 X78.214 Y159.338 E4.50696
G1 X77.593 Y158.688 E4.52387
G1 X76.931 Y157.753 E4.54542
G1 X75.94 Y156.301 E4.57849
G1 X75.461 Y155.578 E4.5948
G1 X74.942 Y154.473 E4.61777
G1 X74.253 Y152.938 E4.64942
G1 X73.906 Y152.135 E4.66587
G1 X73.593 Y150.97 E4.68856
G1 X73.182 Y149.33 E4.72037
G1 X72.982 Y148.485 E4.7367
G1 X72.875 Y147.235 E4.7603
G1 X72.764 Y145.628 E4.7906
G1 X72.713 Y144.702 E4.80804
G1 X72.821 Y143.525 E4.83028
G1 X73.007 Y141.812 E4.86269
G1 X73.103 Y141.024 E4.87762
G1 X73.366 Y139.764 E4.90183
G1 X73.893 Y137.065 E4.95356
G1 X74.341 Y134.355 E5.00523
G1 X74.711 Y131.658 E5.05644
G1 X75.003 Y128.959 E5.1075
G1 X75.222 Y126.207 E5.15943
G1 X75.362 Y123.463 E5.21112
G1 X75.425 Y120.741 E5.26233
G1 X75.41 Y117.989 E5.3141
G1 X75.319 Y115.273 E5.36522
G1 X75.148 Y112.524 E5.41703
G1 X74.901 Y109.787 E5.46872
G1 X74.583 Y107.122 E5.51921
G1 X74.229 Y104.693 E5.56538
G1 X74.034 Y103.455 E5.58896
G1 X73.896 Y102.367 E5.60959
G1 X73.713 Y100.671 E5.64167
G1 X73.63 Y99.787 E5.65838
G1 X73.689 Y98.639 E5.68
G1 X73.809 Y96.897 E5.71285
G1 X73.882 Y96.013 E5.72953
G1 X74.149 Y94.869 E5.75163
G1 X74.567 Y93.199 E5.78401
G1 X74.787 Y92.366 E5.80022
G1 X75.285 Y91.207 E5.82395
G1 X75.94 Y89.75 E5.85399
G1 X76.337 Y88.897 E5.87169
G1 X76.976 Y87.929 E5.89351
G1 X77.91 Y86.559 E5.9247
G1 X78.457 Y85.783 E5.94256
G1 X79.306 Y84.886 E5.96579
G1 X80.423 Y83.748 E5.99579
G1 X81.096 Y83.08 E6.01362
G1 F1500 E-0.48638
;MESH:untitled.stl(3)
G0 F3600 X80.5 Y87.289
G0 X81.274 Y88.048
G0 X77.726 Y99.665
G1 F1500 E6.01362
G0 F3600 X77.427 Y99.67
;TYPE:WALL-INNER
G1 F1800 X77.761 Y102.753 E6.07196
G1 X78.634 Y105.738 E6.13046
G1 X80.027 Y108.542 E6.18935
G1 X83.455 Y114.238 E6.31441
G1 X85.127 Y116.504 E6.36738
G1 X87.198 Y118.348 E6.41954
G1 X89.607 Y119.73 E6.47178
G1 X92.255 Y120.581 E6.5241
G1 X95.021 Y120.869 E6.57641
G1 X97.786 Y120.581 E6.6287
G1 X100.434 Y119.729 E6.68103
G1 X102.843 Y118.348 E6.73326
G1 X104.914 Y116.504 E6.78542
G1 X106.586 Y114.238 E6.83839
G1 X110.012 Y108.544 E6.9634
G1 X111.408 Y105.736 E7.02238
G1 X112.28 Y102.753 E7.08084
G1 X112.614 Y99.666 E7.13925
G1 X112.501 Y98.015 E7.17038
G1 X112.401 Y96.574 E7.19755
G1 X111.645 Y93.557 E7.25606
G1 X110.372 Y90.725 E7.31446
G1 X108.624 Y88.163 E7.3728
G1 X106.446 Y85.943 E7.4313
G1 X103.919 Y84.143 E7.48966
G1 X101.113 Y82.816 E7.54805
G1 X98.112 Y82.001 E7.60655
G1 X95.021 Y81.727 E7.66492
G1 X91.929 Y82.001 E7.72331
G1 X88.929 Y82.816 E7.78179
G1 X86.122 Y84.143 E7.84019
G1 X83.595 Y85.942 E7.89854
G1 X81.417 Y88.163 E7.95705
G1 X79.669 Y90.725 E8.01539
G1 X78.394 Y93.561 E8.07388
G1 X77.64 Y96.574 E8.13231
G1 X77.427 Y99.67 E8.19068
G0 F3600 X77.726 Y99.665
G0 X92.729 Y117.558
G0 X93.013 Y117.467
G1 F1800 X93.049 Y117.204 E8.19568
G1 X93.32 Y116.376 E8.21206
G1 X93.418 Y116.196 E8.21592
G1 X93.535 Y116.083 E8.21898
G1 X94.234 Y115.574 E8.23524
G1 X94.463 Y115.46 E8.24006
G1 X95.534 Y115.464 E8.2602
G1 X95.76 Y115.543 E8.26471
G1 X96.565 Y116.132 E8.28347
G1 X96.697 Y116.302 E8.28752
G1 X96.993 Y117.203 E8.30536
G1 X97.03 Y117.468 E8.31039
G1 X96.723 Y118.402 E8.32888
G1 X96.589 Y118.64 E8.33402
G1 X95.807 Y119.209 E8.35221
G1 X95.579 Y119.32 E8.35698
G1 X94.525 Y119.32 E8.37681
G1 X94.234 Y119.209 E8.38267
G1 X93.451 Y118.639 E8.40089
G1 X93.318 Y118.401 E8.40602
G1 X93.013 Y117.467 E8.4245
G0 F3600 X93.408 Y117.391
;TYPE:WALL-OUTER
G1 F1800 X93.714 Y116.471 E8.44274
G1 X93.771 Y116.407 E8.44435
G1 X94.526 Y115.86 E8.46189
G1 X95.52 Y115.861 E8.48058
G1 X96.318 Y116.443 E8.49916
G1 X96.634 Y117.391 E8.51796
G1 X96.326 Y118.328 E8.53651
G1 X95.521 Y118.922 E8.55533
G1 X94.567 Y118.922 E8.57328
G1 X94.47 Y118.885 E8.57523
G1 X93.715 Y118.328 E8.59288
G1 X93.408 Y117.391 E8.61142
G0 F3600 X93.471 Y117.202
G0 X92.807 Y116.987
G0 X77.726 Y99.665
G0 X77.025 Y99.678
G1 F1800 X77.367 Y102.831 E8.67108
G1 X78.26 Y105.884 E8.73092
G1 X79.676 Y108.734 E8.79078
G1 X83.122 Y114.46 E8.91649
G1 X84.83 Y116.775 E8.97061
G1 X86.963 Y118.674 E9.02433
G1 X89.445 Y120.098 E9.07815
G1 X92.172 Y120.975 E9.13204
G1 X95.021 Y121.271 E9.18592
G1 X97.869 Y120.975 E9.23978
G1 X100.596 Y120.097 E9.29367
G1 X103.078 Y118.674 E9.34748
G1 X105.211 Y116.775 E9.4012
G1 X106.919 Y114.46 E9.45532
G1 X110.363 Y108.736 E9.58098
G1 X111.782 Y105.882 E9.64093
G1 X112.674 Y102.831 E9.70073
G1 X113.016 Y99.674 E9.76046
G1 X112.9 Y97.987 E9.79227
G1 X112.797 Y96.511 E9.8201
G1 X112.025 Y93.425 E9.87994
G1 X110.722 Y90.529 E9.93967
G1 X108.934 Y87.908 E9.99935
G1 X106.707 Y85.637 E10.05919
G1 X104.122 Y83.797 E10.11887
G1 X101.252 Y82.439 E10.1786
G1 X98.182 Y81.606 E10.23843
G1 X95.021 Y81.325 E10.29813
G1 X91.859 Y81.606 E10.35784
G1 X88.79 Y82.439 E10.41766
G1 X85.919 Y83.797 E10.4774
G1 X83.334 Y85.637 E10.53709
G1 X81.107 Y87.908 E10.59692
G1 X79.319 Y90.529 E10.6566
G1 X78.014 Y93.429 E10.71642
G1 X77.244 Y96.511 E10.77617
G1 X77.025 Y99.678 E10.83589
G0 F3600 X77.046 Y99.876
G0 X77.809 Y99.664
;TYPE:SKIN
G1 F1800 X78.135 Y102.676 E10.89288
G1 X78.991 Y105.6 E10.95019
G1 X80.36 Y108.358 E11.00811
G1 X83.772 Y114.024 E11.13252
G1 X85.412 Y116.247 E11.18449
G1 X87.419 Y118.035 E11.23505
G1 X89.756 Y119.38 E11.28577
G1 X92.331 Y120.206 E11.33664
G1 X93.857 Y120.365 E11.3655
G1 F1478.4 X94.276 Y120.321 E11.37514
G1 F1263.2 X94.423 Y120.342 E11.37912
G1 F1243.5 X95.021 Y120.39 E11.39546
G1 F1245.7 X95.801 Y120.323 E11.41674
G1 F1493.8 X96.247 Y120.359 E11.42688
G1 F1800 X97.71 Y120.207 E11.45455
G1 X100.284 Y119.379 E11.50541
G1 X102.622 Y118.035 E11.55614
G1 X104.629 Y116.247 E11.6067
G1 X106.269 Y114.024 E11.65866
G1 X109.677 Y108.362 E11.78297
G1 X111.052 Y105.598 E11.84105
G1 X111.906 Y102.676 E11.89831
G1 X112.232 Y99.656 E11.95545
G1 X112.121 Y98.042 E11.98588
G1 X112.023 Y96.637 E12.01237
G1 X111.284 Y93.681 E12.06969
G1 X110.038 Y90.911 E12.12682
G1 X108.33 Y88.407 E12.18384
G1 X106.196 Y86.232 E12.24115
G1 X103.726 Y84.474 E12.29818
G1 X100.983 Y83.175 E12.35527
G1 X98.042 Y82.377 E12.4126
G1 X95.021 Y82.109 E12.46965
G1 X91.999 Y82.377 E12.52671
G1 X89.059 Y83.175 E12.58402
G1 X86.315 Y84.474 E12.64113
G1 X83.845 Y86.232 E12.69815
G1 X81.711 Y88.407 E12.75547
G1 X80.003 Y90.911 E12.81249
G1 X78.755 Y93.685 E12.86971
G1 X78.018 Y96.637 E12.92694
G1 X77.809 Y99.664 E12.98401
G0 F3600 X92.642 Y117.391
G1 F1800 X92.687 Y117.086 E12.98981
G1 X93.008 Y116.12 E13.00896
G1 X93.259 Y115.816 E13.01638
G1 X94.129 Y115.186 E13.03658
G1 X94.486 Y115.084 E13.04357
G1 X95.488 Y115.08 E13.06241
G1 X95.934 Y115.198 E13.07109
G1 X96.807 Y115.832 E13.09139
G1 X97.034 Y116.121 E13.0983
G1 X97.362 Y117.114 E13.11797
G1 X97.4 Y117.391 E13.12323
G1 X97.363 Y117.668 E13.12849
G1 X97.085 Y118.518 E13.14531
G1 F1674.4 X96.872 Y118.903 E13.15421
G1 F1472.4 X95.673 Y119.777 E13.18833
G1 F1295 X95.021 Y119.795 E13.20538
G1 F1224.5 X94.426 Y119.78 E13.22184
G1 F1466.4 X94.007 Y119.514 E13.2333
G1 F1800 X93.166 Y118.901 E13.25288
G1 X92.956 Y118.517 E13.26111
G1 X92.688 Y117.702 E13.27725
G1 X92.642 Y117.391 E13.28316
G0 F3600 X83.962 Y113.943
G1 F1800 X88.368 Y118.349 E13.40037
G1 X88.438 Y118.419
G0 F3600 X89.7 Y119.115
G1 F1800 X83.094 Y112.51 E13.57609
G1 X83.024 Y112.44
G0 F3600 X82.238 Y111.088
G1 F1800 X90.584 Y119.434 E13.79811
G1 X90.654 Y119.504
G0 F3600 X91.417 Y119.701
G1 F1800 X81.381 Y109.665 E14.06509
G1 X81.311 Y109.595
G0 F3600 X80.528 Y108.247
G1 F1800 X92.251 Y119.969 E14.37693
G0 F3600 X92.912 Y120.065
G1 F1800 X79.97 Y107.123 E14.72122
G1 X79.9 Y107.053
G0 F3600 X79.413 Y106
G1 F1800 X93.543 Y120.131 E15.09712
G0 F3600 X94.081 Y120.103
G1 F1800 X93.022 Y119.043 E15.12531
G1 X93.014 Y119.036
G1 X79.042 Y105.064 E15.49699
G1 X78.972 Y104.994
G0 F3600 X78.808 Y104.264
G1 F1800 X92.591 Y118.047 E15.86365
G0 F3600 X92.447 Y117.338
G1 F1800 X78.573 Y103.463 E16.23274
G1 X78.503 Y103.393
G0 F3600 X78.339 Y102.664
G1 F1800 X92.546 Y116.871 E16.61068
G0 F3600 X92.686 Y116.445
G1 F1800 X78.265 Y102.024 E16.99431
G0 F3600 X78.196 Y101.389
G1 F1800 X92.832 Y116.025 E17.38365
G0 F3600 X93.089 Y115.716
G1 F1800 X78.128 Y100.755 E17.78165
G0 F3600 X78.059 Y100.121
G1 F1800 X93.401 Y115.463 E18.18978
G0 F3600 X93.729 Y115.225
G1 F1800 X78.019 Y99.515 E18.6077
G0 F3600 X78.056 Y98.986
G1 F1800 X94.072 Y115.003 E19.03377
G0 F3600 X94.517 Y114.882
G1 F1800 X78.092 Y98.456 E19.47073
G0 F3600 X78.128 Y97.927
G1 F1800 X95.081 Y114.88 E19.92171
G0 F3600 X95.69 Y114.923
G1 F1800 X78.164 Y97.398 E20.38793
G0 F3600 X78.201 Y96.869
G1 F1800 X100.407 Y119.075 E20.97866
G0 F3600 X100.766 Y118.868
G1 F1800 X78.285 Y96.387 E21.5767
G0 F3600 X78.398 Y95.934
G1 F1800 X101.126 Y118.662 E22.18131
G0 F3600 X101.485 Y118.455
G1 F1800 X78.511 Y95.482 E22.79246
G0 F3600 X78.624 Y95.029
G1 F1800 X101.844 Y118.249 E23.41016
G0 F3600 X102.203 Y118.042
G1 F1800 X78.737 Y94.576 E24.0344
G0 F3600 X78.85 Y94.124
G1 F1800 X102.553 Y117.826 E24.66494
G0 F3600 X102.852 Y117.56
G1 F1800 X78.974 Y93.682 E25.30015
G0 F3600 X79.149 Y93.292
G1 F1800 X103.152 Y117.294 E25.93866
G0 F3600 X103.451 Y117.027
G1 F1800 X79.326 Y92.902 E26.58044
G0 F3600 X79.501 Y92.512
G1 F1800 X103.75 Y116.761 E27.22552
G0 F3600 X104.049 Y116.494
G1 F1800 X79.676 Y92.121 E27.87389
G0 F3600 X79.852 Y91.731
G1 F1800 X104.348 Y116.227 E28.52554
G0 F3600 X104.615 Y115.929
G1 F1800 X80.027 Y91.341 E29.17963
G0 F3600 X80.211 Y90.959
G1 F1800 X104.855 Y115.603 E29.83521
G0 F3600 X105.095 Y115.278
G1 F1800 X80.44 Y90.622 E30.4911
G0 F3600 X80.669 Y90.286
G1 F1800 X105.335 Y114.952 E31.14727
G0 F3600 X105.575 Y114.626
G1 F1800 X80.898 Y89.949 E31.80373
G0 F3600 X81.128 Y89.613
G1 F1800 X105.816 Y114.301 E32.46049
G0 F3600 X106.056 Y113.975
G1 F1800 X81.357 Y89.277 E33.11752
G0 F3600 X81.586 Y88.94
G1 F1800 X106.273 Y113.627 E33.77425
G0 F3600 X106.486 Y113.274
G1 F1800 X81.816 Y88.604 E34.43052
G0 F3600 X82.085 Y88.308
G1 F1800 X106.698 Y112.921 E35.08528
G0 F3600 X106.911 Y112.568
G1 F1800 X82.365 Y88.022 E35.73826
G0 F3600 X82.645 Y87.737
G1 F1800 X107.123 Y112.215 E36.38942
G0 F3600 X107.336 Y111.862
G1 F1800 X82.925 Y87.451 E37.03881
G0 F3600 X83.206 Y87.166
G1 F1800 X107.549 Y111.509 E37.68638
G0 F3600 X107.761 Y111.155
G1 F1800 X83.486 Y86.88 E38.33215
G0 F3600 X83.766 Y86.595
G1 F1800 X107.974 Y110.802 E38.97612
G0 F3600 X108.186 Y110.449
G1 F1800 X84.06 Y86.323 E39.61793
G0 F3600 X84.391 Y86.088
G1 F1800 X108.399 Y110.096 E40.25659
G0 F3600 X108.611 Y109.742
G1 F1800 X84.721 Y85.853 E40.8921
G0 F3600 X85.052 Y85.617
G1 F1800 X108.824 Y109.39 E41.5245
G0 F3600 X109.037 Y109.037
G1 F1800 X85.383 Y85.383 E42.15375
G0 F3600 X85.713 Y85.147
G1 F1800 X109.249 Y108.683 E42.77986
G0 F3600 X109.462 Y108.33
G1 F1800 X86.043 Y84.912 E43.40284
G0 F3600 X86.374 Y84.677
G1 F1800 X109.654 Y107.957 E44.02214
G0 F3600 X109.841 Y107.579
G1 F1800 X86.751 Y84.488 E44.63639
G0 F3600 X87.135 Y84.306
G1 F1800 X110.03 Y107.201 E45.24545
G0 F3600 X110.218 Y106.824
G1 F1800 X87.519 Y84.125 E45.84929
G0 F3600 X87.903 Y83.943
G1 F1800 X110.406 Y106.446 E46.44792
G0 F3600 X110.593 Y106.068
G1 F1800 X88.287 Y83.761 E47.04132
G0 F3600 X88.671 Y83.58
G1 F1800 X110.781 Y105.69 E47.62949
G0 F3600 X110.935 Y105.279
G1 F1800 X89.055 Y83.398 E48.21156
G0 F3600 X89.488 Y83.266
G1 F1800 X111.063 Y104.841 E48.7855
G0 F3600 X111.191 Y104.403
G1 F1800 X89.933 Y83.145 E49.35101
G0 F3600 X90.378 Y83.024
G1 F1800 X111.319 Y103.965 E49.90809
G0 F3600 X111.447 Y103.528
G1 F1800 X90.823 Y82.904 E50.45673
G0 F3600 X91.268 Y82.783
G1 F1800 X111.575 Y103.09 E50.99694
G0 F3600 X111.703 Y102.652
G1 F1800 X91.713 Y82.662 E51.52872
G0 F3600 X92.179 Y82.562
